blockchains/ethereum/assets/0x2260FAC5E5542a773Aa44fBCfeDf7C193bc2C599/logo.svg

<svg fill="none" height="250" viewBox="0 0 250 250" width="250" xmlns="http://www.w3.org/2000/svg" xmlns:xlink="http://www.w3.org/1999/xlink"><clipPath id="a"><path d="m0 0h250v250h-250z"/></clipPath><g clip-path="url(#a)"><g fill="#5a5564"><path d="m203.849 52.4649-6.865 6.8643c16.38 17.9121 25.463 41.3058 25.463 65.5778s-9.083 47.665-25.463 65.577l6.865 6.865c18.215-19.759 28.329-45.648 28.329-72.522 0-26.8742-10.114-52.764-28.329-72.5223z"/><path d="m59.4911 53.0605c17.9121-16.3795 41.3059-25.4628 65.5779-25.4628s47.665 9.0833 65.577 25.4628l6.864-6.8644c-19.758-18.2157-45.648-28.3289-72.521-28.3289-26.8744 0-52.7641 10.1132-72.5224 28.3289z"/><path d="m53.0614 190.552c-16.36-17.908-25.4314-41.287-25.4314-65.543s9.0714-47.635 25.4314-65.5431l-6.8643-6.8643c-18.2157 19.7583-28.3289 45.648-28.3289 72.5224 0 26.873 10.1132 52.763 28.3289 72.521z"/><path d="m190.555 196.891c-17.913 16.379-41.306 25.462-65.578 25.462s-47.6654-9.083-65.5775-25.462l-6.8643 6.864c19.7583 18.216 45.648 28.329 72.5218 28.329 26.874 0 52.764-10.113 72.522-28.329z"/></g><path d="m168.337 102.098c-1.373-14.3237-13.729-19.1288-29.357-20.5932v-19.7236h-12.081v19.3575c-3.18 0-6.429 0-9.656 0v-19.3575h-11.989v19.8609h-24.5062v12.9279s8.9237-.1601 8.7864 0c1.609-.177 3.2239.2775 4.5044 1.2678 1.2805.9902 2.1265 2.4389 2.3599 4.0407v54.3655c-.0343.565-.1817 1.117-.4332 1.624s-.6021.959-1.0312 1.328c-.4209.376-.9136.663-1.4484.844-.5347.181-1.1005.252-1.6634.208.1602.138-8.7864 0-8.7864 0l-2.2881 14.438h24.2772v20.182h12.081v-19.884h9.656v19.792h12.104v-19.952c20.41-1.236 34.642-6.27 36.427-25.376 1.441-15.376-5.789-22.24-17.344-25.009 7.024-3.455 11.372-9.861 10.388-20.341zm-16.932 42.971c0 15.01-25.719 13.294-33.91 13.294v-26.634c8.191.023 33.91-2.334 33.91 13.34zm-5.606-37.525c0 13.728-21.463 12.058-28.281 12.058v-24.2083c6.818 0 28.281-2.1508 28.281 12.1503z" fill="#f09242"/><path d="m124.977 250c-24.721-.004-48.8849-7.339-69.4375-21.076s-36.5706-33.259-46.02876-56.099c-9.4581214-22.84-11.93161-47.971-7.10773-72.217 4.82388-24.2453 16.72849-46.5161 34.20869-63.9963s39.751-29.38481 63.9963-34.20869c24.246-4.82388 49.377-2.3503914 72.217 7.10773 22.84 9.45816 42.362 25.47616 56.099 46.02876s21.072 44.7165 21.076 69.4375c.003 16.419-3.229 32.678-9.511 47.848s-15.491 28.953-27.101 40.563-25.393 20.819-40.563 27.101-31.429 9.514-47.848 9.511zm0-240.25255c-22.775.0181-45.034 6.78775-63.9629 19.45325-18.9289 12.6656-33.6781 30.6585-42.3834 51.7045-8.70529 21.0458-10.97593 44.2008-6.5249 66.5368 4.451 22.336 15.4239 42.851 31.5317 58.953 16.1078 16.101 36.6275 27.066 58.9655 31.508s45.492 2.163 66.534-6.551c21.043-8.714 39.03-23.47 51.688-42.404s19.419-41.195 19.428-63.971c.006-15.138-2.972-30.128-8.764-44.114-5.791-13.986-14.283-26.6933-24.989-37.3952-10.706-10.7018-23.417-19.1884-37.405-24.9744s-28.98-8.75798-44.118-8.74595z" fill="#282138"/></g></svg>

<svg width="250" height="250" viewBox="0 0 250 250" fill="none" xmlns="http://www.w3.org/2000/svg">
<g clip-path="url(#clip0_33_5930)">
<path d="M203.849 52.4649L196.984 59.3292C213.364 77.2413 222.447 100.635 222.447 124.907C222.447 149.179 213.364 172.572 196.984 190.484L203.849 197.349C222.064 177.59 232.178 151.701 232.178 124.827C232.178 97.9528 222.064 72.063 203.849 52.3047V52.4649Z" fill="#5A5564"/>
<path d="M59.4911 53.0605C77.4032 36.681 100.797 27.5977 125.069 27.5977C149.341 27.5977 172.734 36.681 190.646 53.0605L197.51 46.1961C177.752 27.9804 151.862 17.8672 124.989 17.8672C98.1146 17.8672 72.2249 27.9804 52.4666 46.1961L59.4911 53.0605Z" fill="#5A5564"/>
<path d="M53.0614 190.552C36.7014 172.644 27.63 149.265 27.63 125.009C27.63 100.753 36.7014 77.374 53.0614 59.4659L46.1971 52.6016C27.9814 72.3599 17.8682 98.2496 17.8682 125.124C17.8682 151.997 27.9814 177.887 46.1971 197.645L53.0614 190.552Z" fill="#5A5564"/>
<path d="M190.555 196.891C172.642 213.27 149.249 222.353 124.977 222.353C100.705 222.353 77.3116 213.27 59.3995 196.891L52.5352 203.755C72.2935 221.971 98.1832 232.084 125.057 232.084C151.931 232.084 177.821 221.971 197.579 203.755L190.555 196.891Z" fill="#5A5564"/>
<path d="M168.337 102.098C166.964 87.7743 154.608 82.9692 138.98 81.5048V61.7812H126.899V81.1387C123.719 81.1387 120.47 81.1387 117.243 81.1387V61.7812H105.254V81.6421H80.7478V94.57C80.7478 94.57 89.6715 94.4099 89.5342 94.57C91.1432 94.393 92.7581 94.8475 94.0386 95.8378C95.3191 96.828 96.1651 98.2767 96.3985 99.8785V154.244C96.3642 154.809 96.2168 155.361 95.9653 155.868C95.7138 156.375 95.3632 156.827 94.9341 157.196C94.5132 157.572 94.0205 157.859 93.4857 158.04C92.951 158.221 92.3852 158.292 91.8223 158.248C91.9825 158.386 83.0359 158.248 83.0359 158.248L80.7478 172.686H105.025V192.868H117.106V172.984H126.762V192.776H138.866V172.824C159.276 171.588 173.508 166.554 175.293 147.448C176.734 132.072 169.504 125.208 157.949 122.439C164.973 118.984 169.321 112.578 168.337 102.098ZM151.405 145.069C151.405 160.079 125.686 158.363 117.495 158.363V131.729C125.686 131.752 151.405 129.395 151.405 145.069ZM145.799 107.544C145.799 121.272 124.336 119.602 117.518 119.602V95.3937C124.336 95.3937 145.799 93.2429 145.799 107.544Z" fill="#F09242"/>
<path d="M124.977 250C100.256 249.996 76.0921 242.661 55.5395 228.924C34.9869 215.187 18.9689 195.665 9.51074 172.825C0.0526186 149.985 -2.42087 124.854 2.40301 100.608C7.22689 76.3627 19.1315 54.0919 36.6117 36.6117C54.0919 19.1315 76.3627 7.22689 100.608 2.40301C124.854 -2.42087 149.985 0.0526186 172.825 9.51074C195.665 18.9689 215.187 34.9869 228.924 55.5395C242.661 76.0921 249.996 100.256 250 124.977C250.003 141.396 246.771 157.655 240.489 172.825C234.207 187.995 224.998 201.778 213.388 213.388C201.778 224.998 187.995 234.207 172.825 240.489C157.655 246.771 141.396 250.003 124.977 250ZM124.977 9.74745C102.202 9.76555 79.943 16.5352 61.0141 29.2007C42.0852 41.8663 27.336 59.8592 18.6307 80.9052C9.92541 101.951 7.65477 125.106 12.1058 147.442C16.5568 169.778 27.5297 190.293 43.6375 206.395C59.7453 222.496 80.265 233.461 102.603 237.903C124.941 242.345 148.095 240.066 169.137 231.352C190.18 222.638 208.167 207.882 220.825 188.948C233.483 170.014 240.244 147.753 240.253 124.977C240.259 109.839 237.281 94.849 231.489 80.863C225.698 66.877 217.206 54.1697 206.5 43.4678C195.794 32.766 183.083 24.2794 169.095 18.4934C155.107 12.7074 140.115 9.73542 124.977 9.74745Z" fill="#282138"/>
</g>
<defs>
<clipPath id="clip0_33_5930">
<rect width="250" height="250" fill="white"/>
</clipPath>
</defs>
</svg>
